!!!!SEGMENT: pl-kk--kk-i-1--012-004_borek-krzysztof--missa-sanctus.krn
!!!cenid: 15xx:695
!!!COM: Borek, Krzysztof
!!!COM-rismID: pe30020454
!!!CDT: 1520-1573
!!!CNT: Polish
!!!OPR: [Missa]
!!!OTL: Sanctus
!!!OMV: 004
!!!PDT:
!!!AGN: Sacred; Mass
!!!YEC: Copyright 2022 Narodowy Instytut Fryderyka Chopina (https://polishscores.org)
!!!YEM: License CC-BY-4.0 (https://creativecommons.org/licenses/by/4.0)
!!!SMS-siglum: PL-Kk
!!!SMS-shelfmark: Kk.I.1
!!!SMS-shelfwork: 012-004 M
!!!SMS-variant: Cantus: PL-Kk Kk.I.1:0071-0077
!!!SMS-altvar: Cantus: PL-Kk Kk.I.1:0067-0071
!!!NIFC-rismSourceID: 300257954
!!!NIFC-rismChildID: 300257966
!!!NIFC-islandoraID: pl-kk:1
!!!URL-pdf-islandora: https://repozytorium.nifc.pl/islandora/object/pl-kk%3A1/datastream/PDF/view
!!!URL-scan: https://polish.musicsources.pl/pl/lokalizacje/galeria/rekopisy/5736 @EN{Scan on Polish Music Sources Website} @PL{Skany w portalu Dziedzictwo Muzyki Polskiej w otwartym dostępie}
!!!IIIF: https://repozytorium.nifc.pl/islandora/object/pl-kk%3A1/datastream/IIIF/view
!!!ONB-nifc: UWAGA: Quintus (s.69r-75r, skan 0071-0077), Cantus (s. 65r-68v, skan 0067-0071), Altus (s. 66r-72v, skan 0258-0265), Tenor (s. 64r-70v, skan 0453-0460), Bassus (s. 64r-70r, skan 0625-0631). Części Mszy: 1. Kyrie, 2. Et in terra, 3. Patrem, 4. Sanctus
!!!AIN: 1 alto 1 bass 2 soprn 1 tenor
!!!key: d:dor
**kern	**text	**mod-text	**kern	**text	**mod-text	**kern	**text	**mod-text	**kern	**text	**mod-text	**kern
*part5	*	*	*part4	*	*	*part3	*	*	*part2	*	*	*part1
*staff5	*	*	*staff4	*	*	*staff3	*	*	*staff2	*	*	*staff1
*I"BASSVS	*	*	*I"TENOR	*	*	*I"ALTVS	*	*	*I"CANTVS	*	*	*I"QUINTVS
*mI"Basso	*	*	*mI"Tenore	*	*	*mI"Alto	*	*	*mI"Soprano	*	*	*
*I'B	*	*	*I'T	*	*	*I'A	*	*	*I'S	*	*	*I'V 5
*Ibass	*	*	*Itenor	*	*	*Ialto	*	*	*Isoprn	*	*	*Isoprn
*ICvox	*	*	*ICvox	*	*	*ICvox	*	*	*ICvox	*	*	*ICvox
!	!	!	!	!	!	!	!	!	!	!	!	!LO:MO:mod=*tacet
*	*	*	*	*	*	*	*	*	*	*	*	*null
*clefF5	*	*	*clefC4	*	*	*clefC4	*	*	*clefC3	*	*	*
*mclefF4	*	*	*mclefGv2	*	*	*mclefGv2	*	*	*mclefG2	*	*	*
*k[]	*	*	*k[]	*	*	*k[]	*	*	*k[]	*	*	*
*d:dor	*	*	*d:dor	*	*	*d:dor	*	*	*d:dor	*	*	*
*M2/1	*	*	*M2/1	*	*	*M2/1	*	*	*M2/1	*	*	*
*met(C|)	*	*	*met(C|)	*	*	*met(C|)	*	*	*met(C|)	*	*	*
*mmet(c|)	*	*	*mmet(c|)	*	*	*mmet(c|)	*	*	*mmet(c|)	*	*	*
!	!	!	!	!	!	!	!	!	!LO:MO:mod=*null:null	!	!	!
*	*	*	*	*	*	*	*	*	*stria6	*	*	*
=1-	=1-	=1-	=1-	=1-	=1-	=1-	=1-	=1-	=1-	=1-	=1-	=1-
*xywh-#630:5825,696,4222,784	*	*	*xywh-#458:6099,3134,4095,968	*	*	*xywh-#263:5894,3061,4145,831	*	*	*xywh-#70:6044,1701,4163,774	*	*	*
0r	.	.	1D	San-	San-	0r	.	.	1r	.	.	0ryy
.	.	.	1.A	.	.	.	.	.	1A	San-	San-	.
=2-	=2-	=2-	=2-	=2-	=2-	=2-	=2-	=2-	=2-	=2-	=2-	=2-
0r	.	.	.	.	.	1r	.	.	1.d	-ctus	.	0ryy
.	.	.	2G/	.	.	.	.	.	.	.	.	.
.	.	.	1A	.	.	1A	SAnc-	San-	.	.	.	.
.	.	.	.	.	.	.	.	.	2c/	.	.	.
=3-	=3-	=3-	=3-	=3-	=3-	=3-	=3-	=3-	=3-	=3-	=3-	=3-
1r	.	.	2.D/	.	.	1.d	.	.	1d	.	.	0ryy
.	.	.	4E/	.	.	.	.	.	.	.	.	.
1AA	(S)AN-	San-	2F/	.	.	.	.	.	2A/	.	.	.
.	.	.	2E/	.	.	2c\	-tus	.	2e\	.	.	.
=4-	=4-	=4-	=4-	=4-	=4-	=4-	=4-	=4-	=4-	=4-	=4-	=4-
1.D	.	.	4D/	.	.	1d	.	.	1.f	.	.	0ryy
.	.	.	4E/	.	.	.	.	.	.	.	.	.
.	.	.	4F/	.	.	.	.	.	.	.	.	.
.	.	.	4G/	.	.	.	.	.	.	.	.	.
.	.	.	4A\	.	.	2A/	.	.	.	.	.	.
.	.	.	4B\	.	.	.	.	.	.	.	.	.
*	*	*	*custos:A	*	*	*	*	*	*	*	*	*
2C/	.	.	2c\	.	.	2e\	.	.	2e\	.	.	.
!	!	!	!LO:PB:g=original	!	!	!	!	!	!	!	!	!
=5-	=5-	=5-	=5-	=5-	=5-	=5-	=5-	=5-	=5-	=5-	=5-	=5-
*	*	*	*xywh-#459:1660,618,4060,802	*	*	*	*	*	*	*	*	*
1D	.	.	1A	-ctus	-ctus	1.f	.	.	1d	.	.	0ryy
1AA	.	.	2r	.	.	.	.	.	1c	.	.	.
*	*	*	*	*ij	*ij	*	*	*	*	*	*	*
.	.	.	1A\	San-	San-	2e\	.	.	.	.	.	.
=6-	=6-	=6-	=6-	=6-	=6-	=6-	=6-	=6-	=6-	=6-	=6-	=6-
1D	.	.	.	.	.	1d	.	.	2d\	.	.	0ryy
.	.	.	2D/	.	.	.	.	.	4f\	.	.	.
.	.	.	.	.	.	.	.	.	4e\	.	.	.
*	*	*	*	*	*	*custos:d	*	*	*	*	*	*
1.F	.	.	2.A/	-ctus	.	0c	.	-ctus	4f\	.	.	.
.	.	.	.	.	.	.	.	.	4g\	.	.	.
.	.	.	.	.	.	.	.	.	1a\	.	.	.
.	.	.	4G/	.	.	.	.	.	.	.	.	.
!	!	!	!	!	!	!LO:PB:g=originak	!	!	!	!	!	!
=7-	=7-	=7-	=7-	=7-	=7-	=7-	=7-	=7-	=7-	=7-	=7-	=7-
.	.	.	4A/	.	.	.	.	.	.	.	.	0ryy
.	.	.	4B/	.	.	.	.	.	.	.	.	.
2E\	.	.	2c\	San-	.	.	.	.	2g\	.	.	.
*	*	*	*	*	*	*xywh-#264:1368,673,4193,625	*	*	*	*	*	*
1D	.	.	2A/	.	.	2d\	.	[San-	1f	.	.	.
.	.	.	2F/	.	.	2B/	.	.	.	.	.	.
=8-	=8-	=8-	=8-	=8-	=8-	=8-	=8-	=8-	=8-	=8-	=8-	=8-
1C	.	.	2G/	-ctus	.	2.c/	.	.	1e	.	.	0ryy
.	.	.	2A/	Sa-	.	.	.	.	.	.	.	.
.	.	.	.	.	.	4B/	.	.	.	.	.	.
1D	-CTVS	-ctus	2F/	.	.	2A/	.	.	1d	.	.	.
.	.	.	2D/	-ctus	.	1d\	.	.	.	.	.	.
=9-	=9-	=9-	=9-	=9-	=9-	=9-	=9-	=9-	=9-	=9-	=9-	=9-
*custos:D	*	*	*	*	*	*	*	*	*custos:f	*	*	*
1r	.	.	1E	San-	.	.	.	.	1g	.	.	0ryy
.	.	.	.	.	.	2c\	.	.	.	.	.	.
*xywh-#630:5798,1447,4202,845	*	*	*	*	*	*	*	*	*xywh-#70:5989,2308,4168,713	*	*	*
!LO:LB:g=original	!	!	!	!	!	!	!	!	!LO:LB:g=original	!	!	!
2r	.	.	2D/	.	-ctus	1d	.	-ctus	1f	.	-ctus	.
*	*ij	*ij	*	*	*Xij	*	*	*	*	*	*	*
*	*	*	*custos:c	*	*	*	*	*	*	*	*	*
2D\	San-	San-	2A\	-ctus	[San-	.	.	.	.	.	.	.
!	!	!	!LO:LB:g=original	!	!	!	!	!	!	!	!	!
=10-	=10-	=10-	=10-	=10-	=10-	=10-	=10-	=10-	=10-	=10-	=10-	=10-
*	*	*	*xywh-#459:1660,1420,4005,878	*	*	*	*	*	*	*	*	*
2.C/	.	.	1.c	San-	.	2.g\	.	San-	2r	.	.	0ryy
.	.	.	.	.	.	.	.	.	2e\	.	San-	.
4D/	.	.	.	.	.	4f\	.	.	.	.	.	.
4E\	.	.	.	.	.	2e\	.	.	1.g	.	.	.
4F\	.	.	.	.	.	.	.	.	.	.	.	.
2G\	.	.	2B/	.	.	2.d\	.	.	.	.	.	.
=11-	=11-	=11-	=11-	=11-	=11-	=11-	=11-	=11-	=11-	=11-	=11-	=11-
1D	.	.	1A	-ctus	.	.	.	.	.	.	.	0ryy
.	.	.	.	.	.	4c/	.	.	.	.	.	.
.	.	.	.	.	.	2d\	.	.	2f\	.	.	.
2GG/	.	.	1G	San-	.	1B	.	-ctus	2e/	.	.	.
2BB/	.	.	.	.	.	.	.	.	1d\	.	.	.
=12-	=12-	=12-	=12-	=12-	=12-	=12-	=12-	=12-	=12-	=12-	=12-	=12-
1AA	.	.	1A	-ctus	-ctus]	2r	.	.	.	.	.	0ryy
.	.	.	.	.	.	2A/	.	San-	2c/	.	.	.
2GG/	-ctus	-ctus	2r	.	.	2B/	.	.	4d\	.	.	.
.	.	.	.	.	.	.	.	.	4e\	.	.	.
*	*	*	*	*	*ij	*custos:d	*	*	*	*	*	*
2.D\	San-	San-	2D/	San-	San-	2A/	.	.	4f\	.	.	.
.	.	.	.	.	.	.	.	.	4g\	.	.	.
!	!	!	!	!	!	!LO:LB:g=original	!	!	!	!	!	!
=13-	=13-	=13-	=13-	=13-	=13-	=13-	=13-	=13-	=13-	=13-	=13-	=13-
*	*	*	*	*	*	*xywh-#264:1395,1470,4118,838	*	*	*	*	*	*
.	.	.	1.A	.	.	1d	.	.	2.a\	.	.	0ryy
4C\	.	.	.	.	.	.	.	.	.	.	.	.
4D\	.	.	.	.	.	.	.	.	.	.	.	.
4E\	.	.	.	.	.	.	.	.	4g\	.	.	.
2F\	.	.	.	.	.	1c	.	-ctus]	2f\	.	.	.
2C/	.	.	2G/	-ctus	.	.	.	.	2.e\	.	.	.
=14-	=14-	=14-	=14-	=14-	=14-	=14-	=14-	=14-	=14-	=14-	=14-	=14-
*custos:AA	*	*	*	*	*	*	*	*	*	*	*	*
1D	.	.	1F	San-	.	2r	.	.	.	.	.	0ryy
.	.	.	.	.	.	.	.	.	4d/	.	.	.
.	.	.	.	.	.	2.A/	Do-	Do-	1d	.	.	.
*xywh-#630:5785,2279,4296,812	*	*	*	*	*	*	*	*	*	*	*	*
!LO:LB:g=original	!	!	!	!	!	!	!	!	!	!	!	!
1AA	.	.	1E	.	.	.	.	.	.	.	.	.
.	.	.	.	.	.	4A/	-mi-	-mi-	.	.	.	.
!	!	!	!	!	!	!	!	!	!LO:SIC:o=2c/	!	!	!
.	.	.	.	.	.	2A/	-nus	-nus	2c#i	.	.	.
=15-	=15-	=15-	=15-	=15-	=15-	=15-	=15-	=15-	=15-	=15-	=15-	=15-
2D\	-ctus	-ctus	2D/	-ctus	-ctus	2F/	.	De-	0d	.	-ctus	0ryy
*	*Xij	*Xij	*	*Xij	*Xij	*	*	*	*	*	*	*
2.F\	Do-	Do-	2.A/	Do-	Do-	2D/	De-	-us	.	.	.	.
.	.	.	.	.	.	2.F/	-us	Sa-	.	.	.	.
4F\	-mi-	-mi-	4A/	-mi-	-mi-	.	.	.	.	.	.	.
2F\	-nus	-nus	2A/	-nus	-nus	.	.	.	.	.	.	.
.	.	.	.	.	.	4G/	.	-ba-	.	.	.	.
=16-	=16-	=16-	=16-	=16-	=16-	=16-	=16-	=16-	=16-	=16-	=16-	=16-
2D/	De-	De-	2F/	De-	De-	2A/	.	-oth	2r	.	.	0ryy
*	*	*	*custos:F	*	*	*	*	*	*	*	*	*
2F\	-us	-us	2D/	-(us)	-us	2.d\	.	[Do-	2.f\	Do-	Do-	.
*	*	*	*xywh-#459:1625,2257,4019,733	*	*	*	*	*	*	*	*	*
!	!	!	!LO:LB:g=original	!	!	!	!	!	!	!	!	!
2D/	Sab-	Sa-	2.F/	Sa-	Sa-	.	.	.	.	.	.	.
.	.	.	.	.	.	4d\	.	-mi-	4f\	-mi-	-mi-	.
2D/	-ba-	-ba-	.	.	.	2d\	.	-nus	2f\	-nus	-nus	.
.	.	.	4G/	ba -	ba -	.	.	.	.	.	.	.
=17-	=17-	=17-	=17-	=17-	=17-	=17-	=17-	=17-	=17-	=17-	=17-	=17-
1AA	-oth	-oth	1A	-oth	-oth	2c\	.	De-	2e\	de-	De-	0ryy
.	.	.	.	.	.	2A\	.	-us	2c/	-us	-us	.
1r	.	.	1r	.	.	2B\	Sab-	Sa-	2d/	Sab-	Sa-	.
.	.	.	.	.	.	2c\	-ba-	-ba-	2e\	-ba-	-ba-	.
=18-	=18-	=18-	=18-	=18-	=18-	=18-	=18-	=18-	=18-	=18-	=18-	=18-
*	*ij	*ij	*	*	*	*	*	*	*	*	*	*
*	*	*	*	*	*	*custos:A	*	*	*custos:f	*	*	*
1.D	Do-	Do-	2r	.	.	0d	-oth	-oth]	0f	-oth	-oth	0ryy
*	*	*	*	*ij	*ij	*	*	*	*	*	*	*
.	.	.	2.A/	Do-	Do-	.	.	.	.	.	.	.
.	.	.	4A/	-mi-	-mi-	.	.	.	.	.	.	.
2D/	-mi-	-mi-	2A/	-nus	-nus	.	.	.	.	.	.	.
!	!	!	!	!	!	!LO:LB:g=original	!	!	!LO:LB:g=original	!	!	!
=19-	=19-	=19-	=19-	=19-	=19-	=19-	=19-	=19-	=19-	=19-	=19-	=19-
*	*	*	*	*	*	*xywh-#264:1381,2288,4180,783	*	*	*xywh-#70:6034,2960,3969,687	*	*	*
1D	-nus	-nus	1d	De-	De-	2r	.	.	2r	.	.	0ryy
*	*	*	*	*	*	*	*ij	*ij	*	*	*	*
.	.	.	.	.	.	2.A/	Do-	Do-	2.f\	Do-	Do-	.
1F	De-	De-	2c\	.	.	.	.	.	.	.	.	.
.	.	.	.	.	.	4A/	-mi-	-mi-	4f\	-mi-	-mi-	.
.	.	.	1A\	.	.	2A/	-nus	-nus	2f\	-nus	-nus	.
=20-	=20-	=20-	=20-	=20-	=20-	=20-	=20-	=20-	=20-	=20-	=20-	=20-
1E	-us	.	.	.	.	2.B/	De-	De-	1g	De-	De-	0ryy
.	.	.	2G/	.	.	.	.	.	.	.	.	.
.	.	.	.	.	.	4c\	.	.	.	.	.	.
2.D/	Do-	.	4A/	.	.	2d\	-us	-us	2f\	-us	-us	.
.	.	.	4G/	.	.	.	.	.	.	.	.	.
.	.	.	4F/	.	.	1A\	Sab-	Sab-	2.d/	Sab-	[Do-	.
4C/	.	.	4E/	.	.	.	.	.	.	.	.	.
=21-	=21-	=21-	=21-	=21-	=21-	=21-	=21-	=21-	=21-	=21-	=21-	=21-
2BB/	.	.	1D	.	.	.	.	.	.	.	.	0ryy
.	.	.	.	.	.	.	.	.	4d/	.	-mi-	.
*custos:AA	*	*	*	*	*	*	*	*	*	*	*	*
2BB/	-mi-	-us	.	.	.	2G/	-ba-	-ba-	2d/	-ba-	-nus	.
*xywh-#630:5798,3098,4303,757	*	*	*	*	*	*	*	*	*	*	*	*
!LO:LB:g=original	!	!	!	!	!	!	!	!	!	!	!	!
1AA	-nus	Sa-	2E/	-us	.	2A/	-oth	-oth	2c/	-th	De-	.
*	*	*	*custos:D	*	*	*	*	*	*	*	*	*
.	.	.	2F/	Sa-	.	2F/	Do-	Do-	2A/	.	-us]	.
!	!	!	!LO:LB:g=original	!	!	!	!	!	!	!	!	!
=22-	=22-	=22-	=22-	=22-	=22-	=22-	=22-	=22-	=22-	=22-	=22-	=22-
*	*	*	*xywh-#459:1583,3018,4067,712	*	*	*	*	*	*	*	*	*
2GG/	De-	.	2D/	.	-us	2G/	-mi-	-mi-	2B/	.	Sa-	0ryy
1FF	.	.	1A	.	Sa-	2A/	-nus	-nus	2c/	.	.	.
.	.	.	.	.	.	1B	De-	De-	1d	.	.	.
2GG/	-us	.	4G/	.	.	.	.	.	.	.	.	.
.	.	.	4F/	.	.	.	.	.	.	.	.	.
=23-	=23-	=23-	=23-	=23-	=23-	=23-	=23-	=23-	=23-	=23-	=23-	=23-
!	!	!	!	!	!	!	!	!	!LO:SIC:o=2c/	!	!	!
2AA/	Sab	.	2E/	.	.	2A/	-us	-us	2c#i	.	.	0ryy
2BB/	.	.	2D/	.	.	2G/	Sab-	Sab-	1d	.	.	.
1AA	ba-	-ba-	1E	-ba-	-ba-	1A	-ba-	-ba-	.	.	.	.
!	!	!	!	!	!	!	!	!	!LO:SIC:o=2c/	!	!	!
.	.	.	.	.	.	.	.	.	2c#i	.	-ba-	.
=24-	=24-	=24-	=24-	=24-	=24-	=24-	=24-	=24-	=24-	=24-	=24-	=24-
*	*	*	*	*	*	*custos:A	*	*	*	*	*	*
1D	-oth	-oth	1D	-oth	-oth	1A	-oth	-oth	[0dl	.	-oth.	0ryy
*	*	*	*	*	*	*xywh-#264:1388,3065,4221,893	*	*	*	*	*	*
!	!	!	!	!	!	!LO:LB:g=original	!	!	!	!	!	!
2r	.	.	2r	.	.	2r	.	.	.	.	.	.
2.D\	Do-	Do-	2.F/	Do-	Do-	2.A/	Do-	Do-	.	.	.	.
=25-	=25-	=25-	=25-	=25-	=25-	=25-	=25-	=25-	=25-	=25-	=25-	=25-
.	.	.	.	.	.	.	.	.	0d_	.	.	0ryy
4D\	-mi-	-mi-	4F/	-mi-	-mi-	4A/	-mi-	-mi-	.	.	.	.
2D\	-nus	-nus	2F/	-nus	-nus	2A/	-nus	-nus	.	.	.	.
!	!	!	!	!	!	!LO:SIC:o=2B/	!	!	!	!	!	!
2GG/	De-	De-	2G/	De-	De-	2B-i	De-	De-	.	.	.	.
2D\	-us	-us	2F/	-(us)	-us	2A/	-us	-us	.	.	.	.
=26-	=26-	=26-	=26-	=26-	=26-	=26-	=26-	=26-	=26-	=26-	=26-	=26-
!	!	!	!LO:SIC:o=2.B\	!	!	!	!	!	!	!	!	!
1.GG	Sab-	Sab-	2.B-i	Sa-	Sa-	2.G/	Sab-	Sa-	0d_	.	.	0ryy
*	*	*	*custos:G	*	*	*	*	*	*	*	*	*
.	.	.	4A/	.	.	4A/	.	.	.	.	.	.
*	*	*	*xywh-#459:5995,703,4060,857	*	*	*	*	*	*	*	*	*
!	!	!	!LO:LB:g=original	!	!	!LO:SIC:o=2B\	!	!	!	!	!	!
.	.	.	2G/	.	.	2B-i	.	.	.	.	.	.
!	!	!	!	!	!	!LO:SIC:o=2B\	!	!	!	!	!	!
2GG/	-ba-	-ba-	2G/	-ba-	-ba-	2B-i	-ba-	-ba-	.	.	.	.
=27-	=27-	=27-	=27-	=27-	=27-	=27-	=27-	=27-	=27-	=27-	=27-	=27-
*custos:D	*	*	*	*	*	*	*	*	*	*	*	*
0Dl	-oth	-oth.	0Fl	-oth	-oth.	0Al	-oth	-oth.	0d]	.	.	0ryy
*	*Xij	*Xij	*	*Xij	*Xij	*	*Xij	*Xij	*	*	*	*
!LO:PB:g=original	!	!	!	!	!	!	!	!	!LO:PB:g=original	!	!	!
=28||	=28||	=28||	=28||	=28||	=28||	=28||	=28||	=28||	=28||	=28||	=28||	=28||
*xywh-#631:1474,648,3992,852	*	*	*	*	*	*	*	*	*xywh-#71:1544,699,4043,692	*	*	*
1.D	Ple-	Ple-	0r	.	.	0r	.	.	0r	.	.	0ryy
2BB/	-ni	-ni	.	.	.	.	.	.	.	.	.	.
=29-	=29-	=29-	=29-	=29-	=29-	=29-	=29-	=29-	=29-	=29-	=29-	=29-
1C	ſunt	ſunt	0r	.	.	1.A	Ple-	Ple-	1r	.	.	0ryy
2.D/	cae-	cae-	.	.	.	.	.	.	2r	.	.	.
.	.	.	.	.	.	2F/	-ni	-ni	1d\	Ple-	Ple-	.
4C/	.	.	.	.	.	.	.	.	.	.	.	.
=30-	=30-	=30-	=30-	=30-	=30-	=30-	=30-	=30-	=30-	=30-	=30-	=30-
1BB	-li	.	1r	.	.	1G	su(n)t	sunt	.	.	.	0ryy
.	.	.	.	.	.	.	.	.	2B/	.	-ni	.
2AA/	.	-li	2r	.	.	1A	coe-	cae-	1c	-ni	sunt	.
2AA/	.	[ple-	1A\	Ple-	Ple-	.	.	.	.	.	.	.
=31-	=31-	=31-	=31-	=31-	=31-	=31-	=31-	=31-	=31-	=31-	=31-	=31-
*	*	*	*	*	*	*custos:d	*	*	*	*	*	*
2D\	.	-ni	.	.	.	2D/	-li	-li	1d	ſunt	.	0ryy
*	*	*	*	*	*	*xywh-#264:5839,631,4255,831	*	*	*	*	*	*
!	!	!	!	!	!	!LO:LB:g=original	!	!	!	!	!	!
2D\	.	sunt	2F/	-ni	-ni	1d	.	[ple-	.	.	.	.
1BB	.	cae-	1G	ſunt	ſunt	.	.	.	1d	coe-	cae-	.
.	.	.	.	.	.	2B\	.	-ni	.	.	.	.
=32-	=32-	=32-	=32-	=32-	=32-	=32-	=32-	=32-	=32-	=32-	=32-	=32-
1AA	.	-li]	1A	cae-	cae-	1c	.	sunt	2A/	-li	-li	0ryy
.	.	.	.	.	.	.	.	.	2e\	et	et	.
2r	.	.	2D/	-li	-li	1d	.	cae-	1f	ter-	ter-	.
2D/	&	et	2A\	et	et	.	.	.	.	.	.	.
=33-	=33-	=33-	=33-	=33-	=33-	=33-	=33-	=33-	=33-	=33-	=33-	=33-
*	*	*	*custos:B	*	*	*	*	*	*	*	*	*
2C/	ter-	ter-	1c	ter-	ter-	2G/	.	-li]	2e\	.	.	0ryy
*custos:B	*	*	*	*	*	*	*	*	*	*	*	*
!	!	!	!LO:LB:g=original	!	!	!	!	!	!	!	!	!
2AA/	-ra	.	.	.	.	2A/	et	et	2c\	-ra	.	.
*xywh-#631:1427,1440,4107,893	*	*	*xywh-#459:5988,1519,4247,774	*	*	*	*	*	*	*	*	*
!LO:LB:g=original	!	!	!	!	!	!	!	!	!	!	!	!
2BB/	.	.	2B\	.	.	2G/	ter-	ter-	2d\	.	.	.
2C/	.	.	2G/	-ra	.	4E/	-ra	.	2e\	.	.	.
.	.	.	.	.	.	4F/	.	.	.	.	.	.
=34-	=34-	=34-	=34-	=34-	=34-	=34-	=34-	=34-	=34-	=34-	=34-	=34-
2GG/	.	.	1B	.	.	4G/	.	.	2d\	.	.	0ryy
.	.	.	.	.	.	4A/	.	.	.	.	.	.
!	!	!LO:MO:mod=*null:null	!	!	!	!	!	!	!	!	!	!
*	*ij	*ij	*	*	*	*	*	*	*	*	*	*
2G\	et	.	.	.	.	4B\	.	.	1g	.	.	.
.	.	.	.	.	.	4c\	.	.	.	.	.	.
!	!	!	!	!	!	!	!	!LO:MO:mod=*null:null	!	!	!	!
*	*	*	*	*	*	*	*ij	*ij	*	*	*	*
2D\	ter-	.	1A	.	-ra	1d	et	.	.	.	.	.
2F\	-ra	.	.	.	.	.	.	.	2f\	.	.	.
=35-	=35-	=35-	=35-	=35-	=35-	=35-	=35-	=35-	=35-	=35-	=35-	=35-
1E	et	-ra	2r	.	.	1e	ter-	.	1g	.	.	0ryy
!	!	!LO:MO:mod=*ij	!	!	!	!	!	!	!	!	!	!
*	*	*null	*	*ij	*ij	*	*	*	*	*	*	*
.	.	.	2B\	et	et	.	.	.	.	.	.	.
4D\	ter-	ter-	1d	ter-	ter-	2A/	-ra	-ra	1f	.	-ra	.
4E\	.	.	.	.	.	.	.	.	.	.	.	.
!	!	!	!	!	!	!	!	!LO:MO:mod=*ij	!	!	!	!
*	*	*	*	*	*	*	*	*null	*	*	*	*
4F\	.	.	.	.	.	2f\	et	et	.	.	.	.
4G\	.	.	.	.	.	.	.	.	.	.	.	.
=36-	=36-	=36-	=36-	=36-	=36-	=36-	=36-	=36-	=36-	=36-	=36-	=36-
2A\	.	.	2c\	-ra	.	2e\	.	.	2r	.	.	0ryy
2D/	.	.	2A/	et	.	2d\	.	.	2f\	.	[et	.
0E	-ra	-ra	1c	ter-	.	2.g\	ter-	.	2.e\	.	.	.
*	*Xij	*Xij	*	*	*	*	*	*	*	*	*	*
.	.	.	.	.	.	4f\	.	.	4f\	.	.	.
=37-	=37-	=37-	=37-	=37-	=37-	=37-	=37-	=37-	=37-	=37-	=37-	=37-
.	.	.	1B	-ra	-ra	1e	.	.	1g	.	.	0ryy
*	*	*	*	*Xij	*Xij	*	*	*	*	*	*	*
*	*	*	*	*	*	*custos:d	*	*	*	*	*	*
1r	.	.	2r	.	.	2d\	.	.	2f\	.	.	.
*	*	*	*	*	*	*xywh-#264:5859,1401,4310,893	*	*	*	*	*	*
!	!	!	!	!	!	!LO:LB:g=original	!	!	!	!	!	!
.	.	.	2.D/	Glo-	glo-	1d\	.	ter-	1f\	.	ter-	.
=38-	=38-	=38-	=38-	=38-	=38-	=38-	=38-	=38-	=38-	=38-	=38-	=38-
1r	.	.	.	.	.	.	.	.	.	.	.	0ryy
.	.	.	4D/	-ri-	-ri-	.	.	.	.	.	.	.
.	.	.	2D/	-a	-a	4c/	.	.	4e\	.	.	.
*	*	*	*	*	*	*	*	*	*custos:c	*	*	*
.	.	.	.	.	.	4B/	.	.	4d\	.	.	.
*	*	*	*	*	*	*	*	*	*xywh-#71:1553,1271,3990,687	*	*	*
!	!	!	!	!	!	!	!	!	!LO:LB:g=original	!	!	!
2r	.	.	1F	tu-	tu-	2A/	-ra	-ra	1c	.	-ra]	.
*	*	*	*	*	*	*	*Xij	*Xij	*	*	*	*
2.AA/	glo-	glo-	.	.	.	2.A/	glo-	glo-	.	.	.	.
=39-	=39-	=39-	=39-	=39-	=39-	=39-	=39-	=39-	=39-	=39-	=39-	=39-
*	*	*	*custos:D	*	*	*	*	*	*	*	*	*
.	.	.	0E	.	.	.	.	.	2r	.	.	0ryy
4AA/	-ri-	-ri-	.	.	.	4A/	-ri-	-ri-	.	.	.	.
2AA/	-a	-a	.	.	.	2A/	-a	-a	2.c/	glo-	glo-	.
*lig	*	*	*	*	*	*	*	*	*	*	*	*
1C	tu-	tu-	.	.	.	2G/	.	tu-	.	.	.	.
.	.	.	.	.	.	.	.	.	4c/	-ri-	-ri-	.
.	.	.	.	.	.	1A\	tu-	.	2c/	-a	-a	.
!	!	!	!LO:LB:g=original	!	!	!	!	!	!	!	!	!
=40-	=40-	=40-	=40-	=40-	=40-	=40-	=40-	=40-	=40-	=40-	=40-	=40-
*custos:AA	*	*	*xywh-#459:6009,2294,4254,844	*	*	*	*	*	*	*	*	*
1BB	-a	.	1D	-a	-a	.	.	.	1d	tu-	tu-	0ryy
.	.	.	.	.	.	2G/	-a	.	.	.	.	.
*Xlig	*	*	*	*	*	*	*	*	*	*	*	*
*xywh-#631:1393,2218,4127,696	*	*	*	*	*	*	*	*	*	*	*	*
!LO:LB:g=original	!	!	!	!	!	!	!	!	!	!	!	!
2AA/	.	-a	2r	.	.	2A/	.	-a	2c/	-a	-a	.
*	*	*	*	*ij	*ij	*	*ij	*ij	*	*	*	*
2.FF/	.	[glo-	2.A/	Glo-	glo-	2.c/	glo-	glo-	2.f\	.	[glo-	.
!!LO:MO:mod
!! .	.	.	.	.	.	.	.	.	.	.	.	.
!!LO:MO:end
=41-	=41-	=41-	=41-	=41-	=41-	=41-	=41-	=41-	=41-	=41-	=41-	=41-
.	.	.	.	.	.	.	.	.	.	.	.	0ryy
4FF/	.	-ri-	4A/	-ri-	-ri-	4c/	-ri-	-ri-	4f\	.	-ri-	.
2FF/	.	-a	2A/	-a	-a	2c/	-a	-a	2f\	.	-a	.
1C	.	tu-	1G	tu-	tu-	1c	tu-	tu-	1e	.	tu-	.
=42-	=42-	=42-	=42-	=42-	=42-	=42-	=42-	=42-	=42-	=42-	=42-	=42-
2D/	.	-a	2F/	-a	-a	2A/	-a	-a	2d\	.	-a]	0ryy
2.C/	.	glo-	2.c\	Glo-	glo-	2.e\	glo-	glo-	2.g\	glo-	glo-	.
4C/	.	-ri-	4c\	-ri-	-ri-	4e\	-ri-	-ri-	4g\	-ri-	-ri-	.
*	*	*	*	*	*	*custos:e	*	*	*	*	*	*
2C/	.	-a	2c\	-a	-a	2e\	-a	-a	2g\	-a	-a	.
*	*	*	*	*	*	*	*Xij	*Xij	*	*	*	*
!	!	!	!	!	!	!LO:LB:g=original	!	!	!	!	!	!
=43-	=43-	=43-	=43-	=43-	=43-	=43-	=43-	=43-	=43-	=43-	=43-	=43-
*	*	*	*	*	*	*	*	*	*xywh-#264:5859,2261,4255,907	*	*	*
1C	.	tu-	1c	tu-	tu-	1e	tu-	tu-	1g	tu-	tu-	0ryy
*custos:D	*	*	*	*	*	*	*	*	*	*	*	*
1Dl	.	-a.]	1Al	-a	-a.	1dl	-a	-a.	1fl	-a.	-a.	.
*	*	*	*	*Xij	*Xij	*	*	*	*	*	*	*
!LO:LB:g=original	!	!	!	!	!	!	!	!	!	!	!	!
=44||	=44||	=44||	=44||	=44||	=44||	=44||	=44||	=44||	=44||	=44||	=44||	=44||
*xywh-#631:1447,3030,4019,920	*	*	*	*	*	*	*	*	*	*	*	*
0D	O-	O-	0F	O-	O-	0A	O-	O-	0d	O-	O-	0ryy
=45-	=45-	=45-	=45-	=45-	=45-	=45-	=45-	=45-	=45-	=45-	=45-	=45-
0GG	-san-	-san-	0G	-San-	-san-	0B	-ſan-	-ſan-	0d	-ſan-	-ſan-	0ryy
=46-	=46-	=46-	=46-	=46-	=46-	=46-	=46-	=46-	=46-	=46-	=46-	=46-
*	*	*	*custos:A	*	*	*	*	*	*custos:f	*	*	*
00Cl	-na	-na	00E	-na	-na	00A	-na	-na	00cl	-na.	-na.	0ryy
!	!	!	!LO:LB:g=original	!	!	!	!	!	!LO:LB:g=original	!	!	!
=47-	=47-	=47-	=47-	=47-	=47-	=47-	=47-	=47-	=47-	=47-	=47-	=47-
.	.	.	.	.	.	.	.	.	.	.	.	0ryy
=48-	=48-	=48-	=48-	=48-	=48-	=48-	=48-	=48-	=48-	=48-	=48-	=48-
*	*	*	*xywh-#459:6009,3152,4171,767	*	*	*	*	*	*xywh-#71:1553,1828,4038,716	*	*	*
0FF	in	in	0A	in	in	0c	in	in	0f	in	in	0ryy
=49-	=49-	=49-	=49-	=49-	=49-	=49-	=49-	=49-	=49-	=49-	=49-	=49-
*lig	*	*	*lig	*	*	*lig	*	*	*lig	*	*	*
1C	ex-	ex-	1G	ex-	ex-	1c	ex-	ex-	1e	ex-	ex-	0ryy
1D	.	.	1F	.	.	1A	.	.	1d	-cel-	.	.
*Xlig	*	*	*Xlig	*	*	*Xlig	*	*	*Xlig	*	*	*
=50-	=50-	=50-	=50-	=50-	=50-	=50-	=50-	=50-	=50-	=50-	=50-	=50-
0AA	-cel-	-cel-	0E	-cel-	-cel-	0A	-cel-	-cel-	2d\	-ſis	-cel-	0ryy
!	!	!	!	!	!	!	!	!	!LO:SIC:o=4c/	!	!	!
.	.	.	.	.	.	.	.	.	4c#i	.	.	.
.	.	.	.	.	.	.	.	.	4B/	.	.	.
!	!	!	!	!	!	!	!	!	!LO:SIC:o=1c	!	!	!
.	.	.	.	.	.	.	.	.	1c#i	.	.	.
=51-	=51-	=51-	=51-	=51-	=51-	=51-	=51-	=51-	=51-	=51-	=51-	=51-
*custos:D	*	*	*	*	*	*custos:A	*	*	*	*	*	*
0Dl	-ſis	-ſis.	0Dl	-sis	-sis.	0Al	-sis	-sis.	0dl	.	-sis.	0ryy
!LO:LB:g=original	!	!	!	!	!	!LO:LB:g=original	!	!	!	!	!	!
=52||	=52||	=52||	=52||	=52||	=52||	=52||	=52||	=52||	=52||	=52||	=52||	=52||
*xywh-#631:5805,653,4046,866	*	*	*	*	*	*xywh-#264:5880,3139,4248,880	*	*	*	*	*	*
1.D	BE-	Be-	0D	Be-	Be-	1r	.	.	0r	.	.	0ryy
.	.	.	.	.	.	0A	Be-	Be-	.	.	.	.
4C/	-NE-	.	.	.	.	.	.	.	.	.	.	.
4BB/	.	.	.	.	.	.	.	.	.	.	.	.
=53-	=53-	=53-	=53-	=53-	=53-	=53-	=53-	=53-	=53-	=53-	=53-	=53-
1AA	-DIC-	.	1F	-ne-	-ne-	.	.	.	1r	.	.	0ryy
2GG/	-TVS	.	1G	-dic-	-dic-	1B	-ne-	-ne-	1d	Be-	Be-	.
2BB/	.	-ne-	.	.	.	.	.	.	.	.	.	.
=54-	=54-	=54-	=54-	=54-	=54-	=54-	=54-	=54-	=54-	=54-	=54-	=54-
1AA	.	-dic-	1A	-t(us)	-tus	1c	-dic-	-dic-	1e	-ne-	-ne-	0ryy
1D	.	-tus	2r	.	.	1.d	-tus	-tus	1f	-dic-	-dic-	.
.	.	.	2A/	Be-	be-	.	.	.	.	.	.	.
=55-	=55-	=55-	=55-	=55-	=55-	=55-	=55-	=55-	=55-	=55-	=55-	=55-
2r	.	.	1B	-ne-	-ne-	.	.	.	1.g	-tus	-tus	0ryy
2GG/	.	[be-	.	.	.	2d\	.	qui	.	.	.	.
*	*	*	*custos:d	*	*	*	*	*	*	*	*	*
2C\	.	-ne-	1c	-di-	-dic-	1e	.	ve-	.	.	.	.
2E\	.	-dic-	.	.	.	.	.	.	2g\	qui	qui	.
!	!	!	!	!LO:PB:g=original	!LO:PB:g=original	!	!	!	!	!	!	!
=56-	=56-	=56-	=56-	=56-	=56-	=56-	=56-	=56-	=56-	=56-	=56-	=56-
*	*	*	*xywh-#460:1674,599,4054,899	*	*	*	*	*	*	*	*	*
1D	.	tus]	1.d	-ctus	-tus	1A	.	nit	1f	ve-	ve-	0ryy
2.AA/	Qui	qui	.	.	.	2r	.	.	1.e	-nit	.	.
.	.	.	2.c\	q(ui)	qui	1.A\	Qui	[be-	.	.	.	.
4BB/	.	.	.	.	.	.	.	.	.	.	.	.
=57-	=57-	=57-	=57-	=57-	=57-	=57-	=57-	=57-	=57-	=57-	=57-	=57-
2C/	.	.	.	.	.	.	.	.	.	.	.	0ryy
.	.	.	4B/	ve-	.	.	.	.	.	.	.	.
*custos:B	*	*	*	*	*	*	*	*	*	*	*	*
2D/	.	.	1A	.	ve-	.	.	.	2f\	.	.	.
*xywh-#631:5792,1479,4222,825	*	*	*	*	*	*	*	*	*	*	*	*
!LO:LB:g=original	!	!	!	!	!	!	!	!	!	!	!	!
1BB	ve-	ve-	.	.	.	1B	ve:	-ne-	1d	.	-nit	.
!	!	!	!LO:SIC:o=2G/	!	!	!	!	!	!	!	!	!
.	.	.	2G#i	-nit	.	.	.	.	.	.	.	.
=58-	=58-	=58-	=58-	=58-	=58-	=58-	=58-	=58-	=58-	=58-	=58-	=58-
1AA	-nit	-nit	0A	.	-nit	2.c\	.	-dic-	2r	.	.	0ryy
*	*	*	*	*	*	*	*	*	*custos:c	*	*	*
.	.	.	.	.	.	.	.	.	2A/	qui	qui	.
.	.	.	.	.	.	4d\	.	.	.	.	.	.
*	*	*	*	*	*	*	*	*	*xywh-#71:1540,2397,4053,716	*	*	*
!	!	!	!	!	!	!	!	!	!LO:LB:g=original	!	!	!
2r	.	.	.	.	.	2e\	.	-tus	2.c/	.	[ve-	.
*	*	*	*	*	*	*custos:e	*	*	*	*	*	*
2AA/	Be-	be-	.	.	.	2e\	.	qui	.	.	.	.
.	.	.	.	.	.	.	.	.	4d\	.	.	.
!	!	!	!	!	!	!LO:PB:g=original	!	!	!	!	!	!
=59-	=59-	=59-	=59-	=59-	=59-	=59-	=59-	=59-	=59-	=59-	=59-	=59-
*	*	*	*	*	*	*xywh-#265:1516,606,4027,825	*	*	*	*	*	*
1C	-ne-	-ne-	2r	.	.	4e\	.	ve-	1e	.	-nit]	0ryy
.	.	.	.	.	.	4d\	.	.	.	.	.	.
.	.	.	2G/	Be-	be-	4c\	.	.	.	.	.	.
.	.	.	.	.	.	4B/	.	.	.	.	.	.
0D	-dic-	-dic-	0d	-ne-	-ne-	0A	.	-nit]	2r	.	.	.
.	.	.	.	.	.	.	.	.	2d\	be-	be-	.
=60-	=60-	=60-	=60-	=60-	=60-	=60-	=60-	=60-	=60-	=60-	=60-	=60-
.	.	.	.	.	.	.	.	.	1f	-ne-	-ne-	0ryy
1E	-tus	-tus	1B	-dic-	-dic-	2r	.	.	1g	-dic-	-dic-	.
*	*	*	*	*	*	*	*ij	*ij	*	*	*	*
.	.	.	.	.	.	2E/	Be-	be-	.	.	.	.
=61-	=61-	=61-	=61-	=61-	=61-	=61-	=61-	=61-	=61-	=61-	=61-	=61-
1AA	qui	qui	2.c\	-t(us)	-tus	2E/	-ne-	-ne-	1a	-tus	-tus	0ryy
.	.	.	.	.	.	2E/	-dic-	-dic-	.	.	.	.
.	.	.	4B/	q(ui)	.	.	.	.	.	.	.	.
1D	ve-	ve-	2A/	ue-	.	2.F/	-tus	-tus	2d/	qui	qui	.
.	.	.	1d\	-nit	qui	.	.	.	2f\	ve-	ve-	.
.	.	.	.	.	.	4G/	.	.	.	.	.	.
=62-	=62-	=62-	=62-	=62-	=62-	=62-	=62-	=62-	=62-	=62-	=62-	=62-
2AA/	-nit	-nit	.	.	.	2A/	.	.	1e	-(nit)	-nit	0ryy
2AA/	.	[in	2c\	.	ve-	2.A/	Qui	qui	.	.	.	.
1.D	.	no-	1d	.	-nit	.	.	.	2r	.	.	.
.	.	.	.	.	.	4G/	.	.	.	.	.	.
.	.	.	.	.	.	2F/	ve-	.	2d/	bene:-	be-	.
=63-	=63-	=63-	=63-	=63-	=63-	=63-	=63-	=63-	=63-	=63-	=63-	=63-
*	*	*	*custos:A	*	*	*	*	*	*	*	*	*
.	.	.	1r	.	.	1E	-nit	ve-	1.g	-(di-	-ne-	0ryy
*	*	*	*	*	*	*	*Xij	*Xij	*	*	*	*
2C/	.	-mi-	.	.	.	.	.	.	.	.	.	.
*	*	*	*xywh-#460:1674,1464,4102,864	*	*	*	*	*	*	*	*	*
!	!	!	!LO:LB:g=original	!	!	!	!	!	!	!	!	!
2D\	.	-ne	1A	in	in	2D/	in	-nit	.	.	.	.
1F\	.	Do-	.	.	.	2A/	no-	in	2f\	-ctus	-dic-	.
=64-	=64-	=64-	=64-	=64-	=64-	=64-	=64-	=64-	=64-	=64-	=64-	=64-
.	.	.	2A/	no-	no-	1.d	-mi-	no-	1f	qui	-tus	0ryy
4E\	.	.	2A/	-mi-	-mi-	.	.	.	.	.	.	.
4D\	.	.	.	.	.	.	.	.	.	.	.	.
1E	.	-mi-	1G	-ne	-ne	.	.	.	2g\	ve-	qui	.
*	*	*	*	*	*	*custos:d	*	*	*	*	*	*
.	.	.	.	.	.	2c\	-(n)e	-mi-	2e\	.	ve-	.
!	!	!	!	!	!	!LO:LB:g=original	!	!	!	!	!	!
=65-	=65-	=65-	=65-	=65-	=65-	=65-	=65-	=65-	=65-	=65-	=65-	=65-
*custos:AA	*	*	*	*	*	*xywh-#265:1493,1442,4085,733	*	*	*	*	*	*
0D	.	-ni]	2F/	.	Do-	2d\	.	-ne	1f	-nit	-nit	0ryy
.	.	.	1A	Do-	.	1f	.	Do-	.	.	.	.
.	.	.	.	.	.	.	.	.	2r	.	.	.
.	.	.	4G/	.	.	4e\	.	.	2d\	qui	[in	.
.	.	.	4F/	.	.	4d\	.	.	.	.	.	.
!LO:LB:g=original	!	!	!	!	!	!	!	!	!	!	!	!
=66-	=66-	=66-	=66-	=66-	=66-	=66-	=66-	=66-	=66-	=66-	=66-	=66-
*xywh-#631:5798,2284,4161,818	*	*	*	*	*	*	*	*	*	*	*	*
0r	.	.	2E/	-mi-	.	2c\	Do-	.	1.g	ve-	no-	0ryy
.	.	.	2D/	-ni	.	1d	-mi-	.	.	.	.	.
.	.	.	1E	.	-mi-	.	.	.	.	.	.	.
!	!	!	!	!	!	!	!	!	!LO:SIC:v:t=f	!	!	!
.	.	.	.	.	.	2c\	-ni.	-mi-	2g\	-nit	-mi-	.
!	!	!	!	!	!	!	!	!	!LO:LB:g=original	!	!	!
=67-	=67-	=67-	=67-	=67-	=67-	=67-	=67-	=67-	=67-	=67-	=67-	=67-
0r	.	.	1D	.	-ni	1.d	.	-ni	2f\	qui	-ne	0ryy
.	.	.	.	.	.	.	.	.	1f	ve-	Do-	.
.	.	.	2r	.	.	.	.	.	.	.	.	.
*	*	*	*	*ij	*ij	*	*	*	*	*	*	*
.	.	.	2D/	in	in	4c/	.	.	4e\	.	.	.
.	.	.	.	.	.	4B/	.	.	4d\	.	.	.
=68-	=68-	=68-	=68-	=68-	=68-	=68-	=68-	=68-	=68-	=68-	=68-	=68-
!	!	!	!	!	!	!	!	!	!	!	!	!
0AA	IN	in	2E/	no-	no-	1A	.	.	2c/	.	.	0ryy
.	.	.	2F/	-mi-	-mi-	.	.	.	1d	.	.	.
.	.	.	1E	-ne	-ne	2r	.	.	.	.	.	.
*	*	*	*	*	*	*	*ij	*ij	*	*	*	*
!	!	!	!	!	!	!	!	!	!LO:SIC:o=2c/	!	!	!
.	.	.	.	.	.	2e\	in	in	2c#i	.	-mi-	.
=69-	=69-	=69-	=69-	=69-	=69-	=69-	=69-	=69-	=69-	=69-	=69-	=69-
1.D	no-	no-	2.D/	Do-	Do-	1.f	no-	no-	1d	-nit	-ni]	0ryy
*	*	*	*custos:F	*	*	*	*	*	*	*	*	*
.	.	.	4E/	.	.	.	.	.	.	.	.	.
*	*	*	*xywh-#460:1688,2294,4074,740	*	*	*	*	*	*	*	*	*
!	!	!	!LO:LB:g=original	!	!	!	!	!	!	!	!	!
.	.	.	2F/	.	.	.	.	.	1r	.	.	.
2C/	-mi-	-mi-	2G/	-mi-	-mi-	2e\	-mi-	-mi-	.	.	.	.
=70-	=70-	=70-	=70-	=70-	=70-	=70-	=70-	=70-	=70-	=70-	=70-	=70-
*	*	*	*	*	*	*	*	*	*xywh-#71:1559,2965,3918,682	*	*	*
2D/	-ne	-ne	2F/	-ni	-ni	2d\	-(n)e	-ne	0f	In	in	0ryy
1F	Do-	Do-	1A	Do-	Do-	1d	Do-	Do-	.	.	.	.
4E/	.	.	4G/	.	.	4c/	.	.	.	.	.	.
4D/	-mi-	.	4F/	.	.	4B/	.	.	.	.	.	.
=71-	=71-	=71-	=71-	=71-	=71-	=71-	=71-	=71-	=71-	=71-	=71-	=71-
2C/	-ni	.	2E/	.	.	2c/	.	.	2g\	no-	no-	0ryy
*	*	*	*	*	*	*custos:G	*	*	*	*	*	*
1D	.	.	2D/	-mi-	.	2A/	-mi-	-mi-	2f\	.	.	.
*	*	*	*	*	*	*xywh-#265:1464,2176,3575,779	*	*	*	*	*	*
!	!	!	!	!	!	!LO:LB:g=original	!	!	!	!	!	!
.	.	.	1E	-ni	-mi-	1G	-ni	-ni	1g	-mi-	-mi-	.
2C/	.	-mi-	.	.	.	.	.	.	.	.	.	.
=72-	=72-	=72-	=72-	=72-	=72-	=72-	=72-	=72-	=72-	=72-	=72-	=72-
1D	.	-ni	2.D/	in	-ni	2r	.	.	2f\	-ne	-ne	0ryy
.	.	.	.	.	.	2d\	in	in	1f	do-	Do-	.
.	.	.	4E/	.	.	.	.	.	.	.	.	.
2r	.	.	2.F/	.	.	2d\	no-	no-	.	.	.	.
*	*ij	*ij	*	*	*	*	*	*	*	*	*	*
2D\	in	in	.	.	.	4c/	-mi-	.	4e/	-mi-	-mi-	.
.	.	.	4G/	.	.	4B/	-(n)e	.	4d/	.	.	.
=73-	=73-	=73-	=73-	=73-	=73-	=73-	=73-	=73-	=73-	=73-	=73-	=73-
1.F	no-	no-	2A/	.	.	2A/	Do-	.	1c	-ni	-ni	0ryy
.	.	.	2A/	no-	in	2A/	-mi-	-mi-	.	.	.	.
.	.	.	1.c	-mi-	no-	2A/	-ni	-ne	2r	.	.	.
2E\	-mi-	-mi-	.	.	.	2e\	in	in	2g\	in	in	.
=74-	=74-	=74-	=74-	=74-	=74-	=74-	=74-	=74-	=74-	=74-	=74-	=74-
2.C/	-ne	-ne	.	.	.	1.g	no-	no-	1.e	no-	no-	0ryy
*	*	*	*custos:G	*	*	*	*	*	*	*	*	*
.	.	.	2c\	-ne	-mi-	.	.	.	.	.	.	.
4D/	.	.	.	.	.	.	.	.	.	.	.	.
*	*	*	*xywh-#460:1660,3048,2158,664	*	*	*	*	*	*	*	*	*
!	!	!	!LO:LB:g=original	!	!	!	!	!	!	!	!	!
2E\	.	.	2G/	Do-	-ne	.	.	.	.	.	.	.
*custos:D	*	*	*	*	*	*	*	*	*	*	*	*
2C/	Do-	Do-	2.A/	.	Do-	2g\	-mi-	-mi-	2e\	-(mi-	-mi-	.
!LO:LB:g=original	!	!	!	!	!	!	!	!	!	!	!	!
=75-	=75-	=75-	=75-	=75-	=75-	=75-	=75-	=75-	=75-	=75-	=75-	=75-
*xywh-#631:5798,3103,1806,642	*	*	*	*	*	*	*	*	*	*	*	*
1.D	.	.	.	.	.	2f\	-(n)e	-ne	2d\	-n)e	-ne	0ryy
.	.	.	4G/	.	.	.	.	.	.	.	.	.
.	.	.	4F/	.	.	2d\	Do-	Do-	1f	d(o-	Do-	.
.	.	.	4E/	.	.	.	.	.	.	.	.	.
.	.	.	2.F/	-mi-	-mi-	2d\	-mi-	-mi-	.	.	.	.
2D/	-mi-	-mi-	.	.	.	4c/	.	.	2f\	-mi)-	-mi-	.
.	.	.	4G/	.	.	4B/	.	.	.	.	.	.
=76-	=76-	=76-	=76-	=76-	=76-	=76-	=76-	=76-	=76-	=76-	=76-	=76-
!LO:SIC:o=0AAl	!	!	!LO:SIC:o=0Al	!	!	!LO:SIC:o=0cl	!	!	!LO:SIC:o=0el	!	!	!
0AA;	-ni	-ni.	0A;	-ni	-ni.	0c#i;	-ni	-ni.	0e;	-ni	-ni.	0ryy
*	*Xij	*Xij	*	*Xij	*Xij	*	*Xij	*Xij	*	*	*	*
==	==	==	==	==	==	==	==	==	==	==	==	==
*-	*-	*-	*-	*-	*-	*-	*-	*-	*-	*-	*-	*-
!!!system-decoration: [(*)]
!!LO:MO:ori
!!!RDF**kern: l = terminal long
!!LO:MO:mod
!! !!!RDF**kern: i = editorial accidental
!!LO:MO:end
!!!filter-modern: shed -e "s/TX(.*):t=P:/tx$1:t=P:/LG" | shed -e "s/^custos:/Xcustos:/I" | sic -sq | modori -m | autostem -r | tie -s | humtr -p | shed -e "s/-//B"
!!!ENC: Mateusz Solarz
!!!END: 2022-02-15
!!!EED: Urszula Świątek
!!!EEV: 2022-02-23
!!!ENC-modern: Andrzej Kubiczek
!!!END-modern: 2022-07-29
!!!ENC-iiif: Elżbieta Cabała
!!!END-iiif: 2022-08-31
